icons/breeding_sites_fill.svg

<svg width="48" height="48" viewBox="0 0 48 48" fill="none" xmlns="http://www.w3.org/2000/svg">
<path fill-rule="evenodd" clip-rule="evenodd" d="M7.93475 6.64464C7.73847 6.12841 7.16087 5.86903 6.64464 6.06531C6.12841 6.26158 5.86903 6.83918 6.06531 7.35541C6.93633 9.64632 8.99025 10.7945 11.0729 10.7945C12.7036 10.7945 14.3655 10.0956 15.5464 8.7211C16.733 10.047 18.1913 10.7945 19.75 10.7945C21.3022 10.7945 22.7548 10.0533 23.9386 8.73786C25.0266 10.0711 26.4972 10.7946 28.0729 10.7946C29.6824 10.7946 31.2522 10.0406 32.4939 8.66177C32.9172 9.1442 33.3759 9.55233 33.8621 9.87831C32.4851 10.9539 31.5402 12.4371 30.9204 13.6939C30.5002 14.546 30.2075 15.3388 30.0195 15.9186C29.9884 16.0145 29.9601 16.1048 29.9345 16.1889C28.5475 15.968 27.0768 16.0133 25.6004 16.3684C24.825 16.555 24.0888 16.8172 23.3991 17.1443C23.393 15.4645 22.0499 14.1047 20.394 14.1047C19.7445 14.1047 19.1431 14.3139 18.6517 14.6696C18.1208 13.8067 17.177 13.2326 16.1011 13.2326C14.5752 13.2326 13.315 14.3872 13.1217 15.8828C12.9733 15.86 12.8214 15.8481 12.6667 15.8481C11.0071 15.8481 9.66168 17.2141 9.66168 18.8992C9.66168 19.426 9.79322 19.9217 10.0248 20.3542C8.81763 20.7502 7.94452 21.9006 7.94452 23.2581C7.94452 24.3503 8.50981 25.3085 9.35955 25.8475C9.00915 26.3465 8.80304 26.9572 8.80304 27.6167C8.80304 29.2546 10.0741 30.591 11.6694 30.6646C11.4831 31.0617 11.3788 31.506 11.3788 31.9752C11.3788 33.3733 12.3051 34.5519 13.5687 34.9126C13.2134 35.3444 13 35.8973 13 36.5001C13 37.4012 13.4767 38.1909 14.1917 38.6309C13.5505 38.8837 13.096 39.5163 13.096 40.2567C13.096 41.2195 13.8648 42.0001 14.8132 42.0001C15.7616 42.0001 16.5304 41.2195 16.5304 40.2567C16.5304 39.7408 16.3097 39.2773 15.959 38.9581C17.1205 38.7426 18 37.7241 18 36.5001C18 35.4567 17.3609 34.5627 16.4527 34.1881C17.0294 33.6321 17.3889 32.8463 17.3889 31.9752C17.3889 30.8414 16.7799 29.8522 15.876 29.3262C15.1057 27.2946 14.4851 21.2122 18.9313 21.0637C18.7664 21.324 18.6139 21.5909 18.4745 21.8635C17.4988 23.7719 17.1626 25.9615 17.6688 28.131C18.8714 33.2842 24.3723 36.3729 29.9553 35.0298C35.5384 33.6868 39.0894 28.4205 37.8869 23.2673C37.1563 20.1368 34.8396 17.7682 31.8818 16.6921C31.8988 16.6373 31.9171 16.5796 31.9367 16.5191C32.1033 16.0053 32.3621 15.3051 32.73 14.5592C33.4835 13.0311 34.6103 11.4824 36.1762 10.7878C36.1919 10.7808 36.2074 10.7735 36.2226 10.7658C36.397 10.7849 36.5729 10.7945 36.75 10.7945C38.726 10.7945 40.5407 9.59315 41.8447 7.53529C42.1403 7.06878 42.0018 6.45096 41.5353 6.15534C41.0688 5.85972 40.451 5.99826 40.1553 6.46476C39.0983 8.13294 37.8435 8.79455 36.75 8.79455C35.6565 8.79455 34.4018 8.13294 33.3447 6.46476C33.1613 6.17539 32.8426 6.00003 32.5 6.00003C32.1574 6.00003 31.8387 6.1754 31.6553 6.46477C30.6184 8.10116 29.2559 8.79457 28.0729 8.79456C26.9102 8.79456 25.692 8.12603 24.892 6.54786C24.7294 6.2271 24.407 6.01836 24.0478 6.00117C23.6886 5.98398 23.3478 6.161 23.1553 6.46476C22.0983 8.13294 20.8435 8.79455 19.75 8.79455C18.6565 8.79455 17.4018 8.13294 16.3447 6.46476C16.1522 6.161 15.8114 5.98398 15.4522 6.00117C15.093 6.01836 14.7707 6.2271 14.6081 6.54786C13.8407 8.06163 12.423 8.79455 11.0729 8.79455C9.73202 8.79455 8.48039 8.07976 7.93475 6.64464ZM14.5471 28.9285L14.5287 28.9141L14.5226 28.9273L14.5471 28.9285ZM34.389 28.0961C34.389 29.4201 33.3319 30.4933 32.0278 30.4933C30.7238 30.4933 29.6667 29.4201 29.6667 28.0961C29.6667 26.7721 30.7238 25.6988 32.0278 25.6988C33.3319 25.6988 34.389 26.7721 34.389 28.0961Z" fill="black"/>
</svg>

<svg
  xmlns="http://www.w3.org/2000/svg"
  width="24"
  height="24"
  viewBox="0 0 24 24"
  fill="none"
  stroke="currentColor"
  stroke-width="2"
  stroke-linecap="round"
  stroke-linejoin="round"
>
  <path
    fill-rule="evenodd"
    d="M7.935 6.645a1 1 0 0 0-1.87.71c.871 2.291 2.925 3.44 5.008 3.44 1.63 0 3.293-.7 4.473-2.074 1.187 1.326 2.645 2.073 4.204 2.073 1.552 0 3.005-.74 4.189-2.056 1.088 1.333 2.558 2.057 4.134 2.057 1.61 0 3.18-.754 4.42-2.133.424.482.883.89 1.37 1.216-1.378 1.076-2.323 2.56-2.943 3.816a17 17 0 0 0-.986 2.495 11.1 11.1 0 0 0-4.334.18c-.775.186-1.511.448-2.2.775-.007-1.68-1.35-3.04-3.006-3.04-.65 0-1.25.21-1.742.566a2.99 2.99 0 0 0-2.55-1.437c-1.527 0-2.787 1.154-2.98 2.65a3 3 0 0 0-.455-.035c-1.66 0-3.005 1.366-3.005 3.051 0 .527.131 1.023.363 1.455a3.05 3.05 0 0 0-2.08 2.904 3.06 3.06 0 0 0 1.415 2.59 3.07 3.07 0 0 0-.557 1.769c0 1.638 1.271 2.974 2.866 3.048-.186.397-.29.841-.29 1.31 0 1.398.926 2.577 2.19 2.938a2.499 2.499 0 0 0 .623 3.718 1.74 1.74 0 0 0-1.096 1.626c0 .962.769 1.743 1.717 1.743s1.717-.78 1.717-1.743c0-.516-.22-.98-.571-1.299a2.5 2.5 0 0 0 .494-4.77 3.07 3.07 0 0 0 .936-2.213 3.06 3.06 0 0 0-1.513-2.649c-.77-2.031-1.39-8.114 3.055-8.262q-.247.39-.457.8c-.975 1.908-1.311 4.098-.805 6.267 1.202 5.153 6.703 8.242 12.286 6.899s9.134-6.61 7.932-11.763c-.73-3.13-3.047-5.499-6.005-6.575l.055-.173c.166-.514.425-1.214.793-1.96.754-1.528 1.88-3.077 3.446-3.771l.047-.022q.261.028.527.028c1.976 0 3.79-1.2 5.095-3.259a1 1 0 1 0-1.69-1.07c-1.057 1.668-2.312 2.33-3.405 2.33s-2.348-.662-3.405-2.33a1 1 0 0 0-1.69 0c-1.037 1.636-2.4 2.33-3.582 2.33-1.163 0-2.381-.669-3.181-2.247a1 1 0 0 0-1.737-.083c-1.057 1.668-2.312 2.33-3.405 2.33s-2.348-.662-3.405-2.33a1 1 0 0 0-1.737.083c-.767 1.514-2.185 2.247-3.535 2.247-1.341 0-2.593-.715-3.138-2.15m6.612 22.284-.018-.015-.006.013zm19.842-.833c0 1.324-1.057 2.397-2.361 2.397s-2.361-1.073-2.361-2.397 1.057-2.397 2.36-2.397c1.305 0 2.362 1.073 2.362 2.397"
    clip-rule="evenodd"
  />
</svg>
